!!!!SEGMENT: Lhe2003-Hodie_salvator_mundi.krn
!!!id: Lhe2003
!!!AGN: Motet
!!!SCT: Perkins (1969)
!!!voices: 4
!!!COM: Jean Lhéritier
!!!OTL: Hodie salvator mundi
**kern	**kern	**kern	**kern
*part4	*part3	*part2	*part1
*staff4	*staff3	*staff2	*staff1
*I"Bassus	*I"Tenor	*I"Altus	*I"Superius
*I'B	*I'T	*I'A	*I'S
*clefF4	*clefGv2	*clefG2	*clefG2
*k[b-]	*k[b-]	*k[b-]	*k[b-]
*F:	*F:	*F:	*F:
*M2/1	*M2/1	*M2/1	*M2/1
*met(C|)	*met(C|)	*met(C|)	*met(C|)
!!Section: Prima pars: Hodie salvator mundi
!!!OMD: Prima pars: Hodie salvator mundi
=1	=1	=1	=1
0G	0G	0d	0g
=2	=2	=2	=2
1G	1B-y	1d	1g
1C	1c	1e	1g
=3	=3	=3	=3
1G	1B-y	1d	1g
1F	1c	1f	1a
=4	=4	=4	=4
1B-y	2.d	2.f	1b-y
.	4c	4e	.
1B-y	4d	4d	1b-y
.	4e	4c	.
.	[2f	2d	.
=5	=5	=5	=5
0F	2f]	2c	0a
.	4e	2.f	.
.	4d	.	.
.	1c	.	.
.	.	4e	.
.	.	2f	.
=6	=6	=6	=6
1.G	1B-y	2d	1.b-y
.	.	2.e	.
.	1r	.	.
.	.	4d	.
2F	.	[2d	2a
=7	=7	=7	=7
1E	1G	2d]	1.g
.	.	2c#i	.
[1D	1B-y	[1d	.
.	.	.	4f
.	.	.	4e
=8	=8	=8	=8
1D]	1A	1d]	1f
2r	1G	2.B-y	2.g
2G	.	.	.
.	.	4c	4f
=9	=9	=9	=9
1G	2r	2d	4g
.	.	.	4a
.	2B-y	2e	1b-y
1F	1c	2.f	.
.	.	.	2a
.	.	4e	.
=10	=10	=10	=10
2r	1B-y	2d	1b-y
2G	.	2B-y	.
1G	2r	2d	2r
.	2B-y	2e	[2b-y
=11	=11	=11	=11
1F	1c	2.f	2b-]
.	.	.	2a
.	.	4e	.
2G	2B-y	4d	2b-y
.	.	4c	.
2D	2F	2d	[2a
=12	=12	=12	=12
1E	1G	2B-y	4a]
.	.	.	4g
.	.	2c	1g
1D	1A	1d	.
.	.	.	2f#i
=13	=13	=13	=13
2r	1G	1B-y	0g
2G	.	.	.
2G	2r	1d	.
2G	2G	.	.
=14	=14	=14	=14
2C	2c	2e	2r
2C	2c	2e	2g
2F	2A	2c	1a
2F	2A	2c	.
=15	=15	=15	=15
2D	2d	2f	1a
2D	2d	2f	.
[1G	[1B-y	2.d	2.g
.	.	8eL	4f
.	.	8dJ	.
=16	=16	=16	=16
1G]	1B-]	2e	4g
.	.	.	4a
.	.	1d	1b-y
1E	1G	.	.
.	.	2c#i	4a
.	.	.	4g
=17	=17	=17	=17
0D	1B-y	0d	2f
.	.	.	1g
.	1A	.	.
.	.	.	2f#i
=18	=18	=18	=18
2r	0G	0B-y	0g
1G	.	.	.
2G	.	.	.
=19	=19	=19	=19
2G	2r	1B-y	0r
2G	1d	.	.
1F	.	1r	.
.	2d	.	.
=20	=20	=20	=20
1B-y	2d	0r	0r
.	2d	.	.
[1A	1c	.	.
=21	=21	=21	=21
2A]	1f	0r	0r
4G	.	.	.
4F	.	.	.
2G	1e	.	.
2A	.	.	.
=22	=22	=22	=22
2B-y	2d	1.g	0r
2.G	2.e	.	.
4F	4d	.	.
4E	[2d	2g	.
4D	.	.	.
=23	=23	=23	=23
1E	2d]	1g	1r
.	2c#i	.	.
[1D	[1d	[1f	[1dd
=24	=24	=24	=24
1D]	1d]	2f]	2dd]
.	.	4e	2dd
.	.	4d	.
1r	1r	2f	1dd
.	.	2g	.
=25	=25	=25	=25
0r	0r	2e	2cc
.	.	2f	2.dd
.	.	1g	.
.	.	.	4b-y
.	.	.	[2ee-i
=26	=26	=26	=26
0r	1r	2f	2ee-]
.	.	2d	1dd
.	[1A	1e	.
.	.	.	2cc
=27	=27	=27	=27
1.D	2A]	0d	0dd
.	2A	.	.
.	2B-y	.	.
2D	2A	.	.
=28	=28	=28	=28
1E	2G	0r	0r
.	2c	.	.
1D	2c	.	.
.	2BnXi	.	.
=29	=29	=29	=29
2C	1c	0r	0r
2F	.	.	.
2F	2r	.	.
2E	[2c	.	.
=30	=30	=30	=30
1F	4c]	0r	0r
.	4A	.	.
.	2.d	.	.
2.G	.	.	.
.	4c	.	.
.	4B-y	.	.
4F	4A	.	.
=31	=31	=31	=31
2E	2G	0r	1r
2.A	1c	.	.
.	.	.	[1a
4G	.	.	.
[2G	2B-y	.	.
=32	=32	=32	=32
2G]	1A	1.d	2a]
2F#i	.	.	2a
1G	2G	.	2b-y
.	2G	2d	2b-y
=33	=33	=33	=33
2r	2c	2e	2g
2C	2c	2e	2.cc
2F	1A	2c	.
.	.	.	4b-y
2F	.	2c	4a
.	.	.	4g
=34	=34	=34	=34
2D	2.B-y	2d	2f
1G	.	2d	2b-y
.	4c	.	.
.	4d	2G	2b-y
.	4B-y	.	.
2F	[2c	2A	[2a
=35	=35	=35	=35
1E	4c]	2B-y	4a]
.	4B-y	.	4g
.	4A	2c	1g
.	4G	.	.
1D	1A	1d	.
.	.	.	2f#i
=36	=36	=36	=36
2r	4G	2B-y	1g
.	4A	.	.
1G	4B-y	2d	.
.	4c	.	.
.	4d	[1d	2r
.	4e	.	.
2F	[2f	.	2a
=37	=37	=37	=37
1B-y	4f]	1d]	2f
.	4e	.	.
.	1d	.	2g
1A	.	1e	[1a
.	2c#i	.	.
=38	=38	=38	=38
2r	1d	2d	2a]
1G	.	4B-y	1b-y
.	.	4c	.
.	2r	4d	.
.	.	4e	.
2F	2d	[2f	[2a
=39	=39	=39	=39
1B-y	1d	4f]	2a]
.	.	4e	.
.	.	1d	2g
1A	1e	.	[1a
.	.	2c#i	.
=40	=40	=40	=40
2r	1d	2d	2a]
2B-y	.	1f	1dd
2B-y	2r	.	.
2B-y	2d	2g	2dd
=41	=41	=41	=41
1A	2f	1a	1cc
.	2.e	.	.
1D	.	1a	2dd
.	4d	.	.
.	[2d	.	[2ff
=42	=42	=42	=42
1A	2d]	1a	2ff]
.	2c	.	2.ee
1B-y	1d	2f	.
.	.	.	4dd
.	.	2g	[2dd
=43	=43	=43	=43
1A	1e	2.a	2dd]
.	.	.	2cc
.	.	4g	.
[1B-y	[1d	4f	2.dd
.	.	4e	.
.	.	[2g	.
.	.	.	4cc
=44	=44	=44	=44
2B-]	2d]	4g]	4b-y
.	.	4f	4a
2F	2A	1f	2.cc
1G	1B-y	.	.
.	.	.	4b-y
.	.	2e	[2b-y
=45	=45	=45	=45
1F	1c	1f	2b-]
.	.	.	2a
2r	2B-y	2d	2b-y
2G	2d	2g	2b-y
=46	=46	=46	=46
2G	2d	2g	2b-y
2G	2d	2g	2b-y
1C	1e	1g	1cc
=47	=47	=47	=47
1.G	2.d	2.g	2.b-y
.	4c	8fL	4a
.	.	8eJ	.
.	2B-y	4d	4g
.	.	4c	4f
2D	2F	2d	[2a
=48	=48	=48	=48
1E	1G	2B-y	4a]
.	.	.	4g
.	.	2c	1g
1D	1A	1d	.
.	.	.	2f#i
=49	=49	=49	=49
[0G	[0G	0d	1g
.	.	.	2r
.	.	.	2dd
=50	=50	=50	=50
0G]	1G]	1r	2dd
.	.	.	2dd
.	1r	1g	1ee
=51	=51	=51	=51
0r	0r	2g	1dd
.	.	2g	.
.	.	1a	2r
.	.	.	2cc
=52	=52	=52	=52
0r	0r	1g	2dd
.	.	.	2ee
.	.	1a	2.ff
.	.	.	8eeL
.	.	.	8ddJ
=53	=53	=53	=53
0r	0r	1a	4cc
.	.	.	4dd
.	.	.	2.ee
.	.	2g	.
.	.	.	4dd
.	.	2f	[2dd
=54	=54	=54	=54
0r	1A	1e	2dd]
.	.	.	2cc#i
.	1B-y	[1d	[1dd
=55	=55	=55	=55
1D	2A	1d]	1dd]
.	1d	.	.
1E	.	1r	1r
.	2c	.	.
=56	=56	=56	=56
2D	1B-y	0r	0r
1G	.	.	.
.	2A	.	.
2F	[2d	.	.
=57	=57	=57	=57
1E	2d]	0r	0r
.	2c#i	.	.
2D	1d	.	.
[2G	.	.	.
=58	=58	=58	=58
2G]	2r	0r	0r
2F	2d	.	.
2G	2d	.	.
2G	2e	.	.
=59	=59	=59	=59
2A	2f	1r	2r
2A	2e	.	2cc
2G	4e	1g	1dd
.	4d	.	.
2F	[2d	.	.
=60	=60	=60	=60
1E	2d]	2g	1ee
.	2c	2g	.
2D	2d	2f	2ff
2A	2c	[2a	[2ee
=61	=61	=61	=61
1B-y	1d	2a]	4ee]
.	.	.	4dd
.	.	2g	1dd
1A	1e	1a	.
.	.	.	2cc#i
=62	=62	=62	=62
2r	1d	1f	2dd
2B-y	.	.	2b-y
2B-y	2r	2r	2b-y
2B-y	2d	2f	2b-y
=63	=63	=63	=63
1F	2d	2f	1a
.	2c	2f	.
2r	1B-y	1d	2r
2G	.	.	2g
=64	=64	=64	=64
2G	2r	2r	2g
2G	2B-y	2d	2g
1D	2B-y	2d	2f
.	2A	2d	2f
=65	=65	=65	=65
2G	2G	2d	2b-y
2F	1c	2A	2.a
1E	.	2B-y	.
.	.	.	4g
.	2B-y	2c	[2g
=66	=66	=66	=66
1D	1A	1d	2g]
.	.	.	2f#i
1G	2G	[1B-y	[1g
.	[2d	.	.
=67	=67	=67	=67
1r	2d]	1B-]	0g_
.	2G	.	.
[1G	2d	1B-y	.
.	2d	.	.
=68	=68	=68	=68
2G]	1e	0r	1g]
2C	.	.	.
2G	1d	.	1r
2G	.	.	.
=69	=69	=69	=69
1A	2c	0r	0r
.	1f	.	.
1G	.	.	.
.	2e	.	.
=70	=70	=70	=70
2F	0f	0r	0r
2B-y	.	.	.
2B-y	.	.	.
2A	.	.	.
=71	=71	=71	=71
1B-y	2r	0r	0r
.	2f	.	.
1G	2f	.	.
.	2e	.	.
=72	=72	=72	=72
2F	2f	0r	0r
1B-y	2d	.	.
.	2c	.	.
2A	2f	.	.
=73	=73	=73	=73
2G	2e	1.e	0r
2F	1d	.	.
1E	.	.	.
.	2c#i	2e	.
=74	=74	=74	=74
0D	0d	1.f	1.a
.	.	2d	2a
=75	=75	=75	=75
0r	0r	2d	1.b-y
.	.	2.g	.
.	.	4f	.
.	.	4e	2g
.	.	4d	.
=76	=76	=76	=76
0r	0r	2e	2g
.	.	2c	2.cc
.	.	2.f	.
.	.	.	4b-y
.	.	.	4a
.	.	4e	4g
=77	=77	=77	=77
0r	0r	4d	2f
.	.	4c	.
.	.	2f	2a
.	.	2e	2g
.	.	[2d	2f
=78	=78	=78	=78
1r	1.A	2d]	1e
.	.	2c#i	.
[1D	.	[1d	[1d
.	2A	.	.
=79	=79	=79	=79
2D]	1.B-y	1d]	1d]
2D	.	.	.
[1E	.	1r	1r
.	2G	.	.
=80	=80	=80	=80
2E]	1G	0r	0r
2C	.	.	.
2C	1c	.	.
2F	.	.	.
=81	=81	=81	=81
2G	2B-y	0r	1r
1A	1c	.	.
.	.	.	[1a
[2G	2B-y	.	.
=82	=82	=82	=82
2G]	1A	1.d	2a]
2F#i	.	.	2a
[1G	[1G	.	[1b-y
.	.	2d	.
=83	=83	=83	=83
1G]	1G]	1.e	2b-]
.	.	.	2g
[1C	2r	.	1g
.	[2G	2c	.
=84	=84	=84	=84
1C]	2G]	2.c	1cc
.	2A	.	.
.	.	4d	.
2G	2B-y	2e	2b-y
[2F	[2c	[2f	[2a
=85	=85	=85	=85
4F]	4c]	4f]	4a]
4G	4B-y	4e	4g
2E	4A	2c	1g
.	4G	.	.
1D	1A	1d	.
.	.	.	2f#i
=86	=86	=86	=86
2r	1G	0B-y	0g
1G	.	.	.
.	2r	.	.
2G	[2d	.	.
=87	=87	=87	=87
2F	2d]	0r	0r
2D	2d	.	.
1F	2c	.	.
.	2A	.	.
=88	=88	=88	=88
1E	1c	0r	0r
2r	1B-y	.	.
[2G	.	.	.
=89	=89	=89	=89
4G]	1d	0r	0r
4A	.	.	.
2B-y	.	.	.
2A	2c	.	.
[2G	2B-y	.	.
=90	=90	=90	=90
2G]	1A	2r	1r
2F#i	.	1c	.
1G	1G	.	2r
.	.	2B-y	[2g
=91	=91	=91	=91
0r	0r	2c	2g]
.	.	2d	2f
.	.	1e	2g
.	.	.	2a
=92	=92	=92	=92
0r	0r	1d	1b-y
.	.	2r	1a
.	.	[2f	.
=93	=93	=93	=93
0r	0r	2f]	2r
.	.	2e	1cc
.	.	2f	.
.	.	2g	2b-y
=94	=94	=94	=94
0r	2r	2a	2cc
.	2d	2.b-y	2dd
.	2e	.	1g
.	.	4a	.
.	2e	[2g	.
=95	=95	=95	=95
2r	1d	2g]	1a
2D	.	2f#i	.
2E	2r	2g	1g
2E	2G	2c	.
=96	=96	=96	=96
1D	2B-y	1d	2r
.	2A	.	2f
2r	1G	1d	2b-y
2G	.	.	2b-y
=97	=97	=97	=97
2B-y	2r	2d	1f
2B-y	2d	2d	.
1F	2f	2.c	2r
.	2f	.	2a
.	.	4d	.
=98	=98	=98	=98
2r	1c	2e	2cc
2A	.	2f	2cc
2c	2r	1e	2.g
2c	2e	.	.
.	.	.	4a
=99	=99	=99	=99
2.G	2g	2.d	4b-y
.	.	.	4cc
.	2g	.	1dd
4A	.	4c	.
2B-y	2.f	2d	.
2F	.	2A	2cc
.	4e	.	.
=100	=100	=100	=100
2G	2d	2B-y	2b-y
2C	2.c	2.e-i	2.a
1E	.	.	.
.	4B-y	4d	4g
.	4A	4B-y	[2g
.	4G	4c	.
=101	=101	=101	=101
1D	1A	1d	2g]
.	.	.	2f#i
[1G	[1G	[1d	1g
=102	=102	=102	=102
0G]	1G]	1d]	2r
.	.	.	2g
.	1r	2r	1b-y
.	.	2d	.
=103	=103	=103	=103
0r	0r	1f	2.a
.	.	.	4b-y
.	.	2e	2cc
.	.	2d	[2dd
=104	=104	=104	=104
1r	1A	1e	2dd]
.	.	.	2cc#i
2r	1B-y	1d	1dd
2D	.	.	.
=105	=105	=105	=105
1F	2.A	0r	0r
.	4B-y	.	.
2E	2c	.	.
2D	[2d	.	.
=106	=106	=106	=106
1E	2d]	1r	1r
.	2c	.	.
2D	2d	2r	2r
[2G	[2d	[2g	[2b-y
=107	=107	=107	=107
2G]	2d]	2g]	2b-]
2G	2d	2g	2b-y
2G	2d	2g	2b-y
2G	2d	2g	2b-y
=108	=108	=108	=108
2B-y	2d	2f	2b-y
2B-y	2d	2f	2b-y
[1F	2c	2f	2a
.	[2c	[2f	[2a
=109	=109	=109	=109
1F]	2c]	2f]	2a]
.	2c	2f	2a
1r	2d	2f	2b-y
.	[2c	[2e	[2a
=110	=110	=110	=110
1r	2c]	2e]	4a]
.	.	.	4g
.	2B-y	1d	1g
2A	1A	.	.
2A	.	2c	2f#i
=111	=111	=111	=111
1B-y	2G	1d	1g
.	2G	.	.
2A	2c	2r	[1a
[2G	2B-y	[2d	.
=112	=112	=112	=112
2G]	1A	2d]	2a]
2F#i	.	2d	2a
1G	2r	2d	1b-y
.	2G	2e	.
=113	=113	=113	=113
2F	2c	2f	2a
2G	2B-y	2d	1g
1D	1A	1d	.
.	.	.	2f#i
=114	=114	=114	=114
2G	1G	2r	0g
2G	.	2d	.
2G	2r	1d	.
2G	2G	.	.
=115	=115	=115	=115
1C	2c	1e	2r
.	2c	.	2g
1G	1B-y	1d	2b-y
.	.	.	2b-y
=116	=116	=116	=116
1F	2r	1f	1a
.	2c	.	.
1B-y	1d	2f	2b-y
.	.	2a	[2dd
=117	=117	=117	=117
1A	1e	1a	2dd]
.	.	.	2cc#i
2r	1d	1f	2dd
2B-y	.	.	2b-y
=118	=118	=118	=118
2B-y	2r	2r	2b-y
2B-y	2d	2f	2b-y
1F	2c	2f	1a
.	2c	2f	.
=119	=119	=119	=119
2r	1B-y	1d	2r
2G	.	.	2g
2G	2r	2r	2g
2G	2B-y	2d	2g
=120	=120	=120	=120
1D	2A	2d	2.f
.	2.B-y	2d	.
.	.	.	8gL
.	.	.	8aJ
2G	.	2d	2b-y
.	4G	.	.
2F	[2c	2A	[2a
=121	=121	=121	=121
1E	4c]	2B-y	2a]
.	4B-y	.	.
.	4A	2c	1g
.	4G	.	.
1D	1A	1d	.
.	.	.	2f#i
=122	=122	=122	=122
00Gl	00Gl	00dl	00gl
==	==	==	==
*-	*-	*-	*-
!!!system-decoration: [*]
!!!RDF**kern: i = editorial accidental
!!!RDF**kern: l = terminal long
!!!ENC: Benjamin Ory
!!!END: 2023/11/15
!!!EED: Benjamin Ory
!!!EEV: 2023/11/15
!!!YEC: Copyright 2023 Benjamin Ory, All Rights Reserved
!!!ONB: Translated from MusicXML on 2023/11/15
